**kern	**silbe	**kern	**silbe
*ICvox	*	*ICvox	*
*C:	*	*C:	*
*M4/4	*	*M4/4	*
*clefG2	*	*clefG2	*
r;	.	r;	.
r;	.	r;	.
r;	.	r;	.
r;	.	r;	.
r;	.	r;	.
r;	.	r;	.
r;	.	r;	.
r;	.	r;	.
r;	.	r;	.
r;	.	r;	.
r;	.	r;	.
r;	.	r;	.
r;	.	r;	.
r;	.	r;	.
r;	.	r;	.
=1	=1	=1	=1
1r	.	1r	.
=2	=2	=2	=2
1r	.	1r	.
=3	=3	=3	=3
1r	.	1r	.
r;	.	r;	.
=4	=4	=4	=4
1r	.	1r	.
=5	=5	=5	=5
1r	.	1r	.
=6	=6	=6	=6
1r	.	1r	.
r;	.	r;	.
=7	=7	=7	=7
1r	.	1r	.
=8	=8	=8	=8
1r	.	1r	.
=9	=9	=9	=9
1r	.	1r	.
=10	=10	=10	=10
1r	.	1r	.
=11	=11	=11	=11
1r	.	1r	.
=12	=12	=12	=12
1r	.	1r	.
=13	=13	=13	=13
1r	.	1r	.
=14	=14	=14	=14
1r	.	1r	.
=15	=15	=15	=15
1r	.	1r	.
=16	=16	=16	=16
*clefF4	*	*	*
2r	.	1r	.
8r	.	.	.
8A	We	.	.
4c	may	.	.
=17	=17	=17	=17
8e-	still	1r	.
4d	have	.	.
8c	time,	.	.
4d	_	.	.
8A	we	.	.
[8c	might	.	.
=18	=18	=18	=18
8c]	_	1r	.
8e	still	.	.
8d	get	.	.
[8c	by	.	.
8c]	_	.	.
8r	.	.	.
16r	.	.	.
16A	Ev-	.	.
8A	-'ry	.	.
=19	=19	=19	=19
8gq	_	.	.
8a	time	1r	.
8a	I	.	.
8a	think	.	.
8a	a	.	.
8dq	_	.	.
8e	bout	.	.
8d	it	.	.
8c	I	.	.
[8d	want	.	.
=20	=20	=20	=20
8d]	_	1r	.
8d	to	.	.
8c	_	.	.
8dq	_	.	.
8e-	cry	.	.
8d	_	.	.
4r	.	.	.
8A	With	.	.
=21	=21	=21	=21
16AQ	_	.	.
16dQ	_	.	.
4e	bombs	1r	.
8d	and	.	.
8c	the	.	.
8d	de-	.	.
8A	-vil	.	.
8.r	.	.	.
16A	and	.	.
=22	=22	=22	=22
6A	the	1r	.
6A	kids	.	.
6A	keep	.	.
8c	co-	.	.
8d	-ming	.	.
8r	.	.	.
8A	no	.	.
=23	=23	=23	=23
8gq	_	.	.
8a	where	1r	.
8a	to	.	.
8a	breathe	.	.
8dq	_	.	.
8e-	ea	.	.
8d	_	.	.
8c	sy,	.	.
8c	no	.	.
[8d	time	.	.
=24	=24	=24	=24
4d]	_	1r	.
16d	to	.	.
8c	be	.	.
8dq	_	.	.
[16e	young	.	.
4.e]	_	.	.
8c	_	.	.
=25	=25	=25	=25
8d	_	1r	.
8c	_	.	.
[2.A	_	.	.
=26	=26	=26	=26
4A]	_	1r	.
4r	.	.	.
2r	.	.	.
=27	=27	=27	=27
*clefG2	*	*	*
1r	.	1r	.
=28	=28	=28	=28
2r	.	1r	.
8r	.	.	.
8a	But	.	.
4a	I	.	.
=29	=29	=29	=29
8cc	tell	1r	.
8cc	my	.	.
8r	.	.	.
8dd	self	.	.
8r	.	.	.
8dd	that	.	.
8dd	I	.	.
8cc	was	.	.
=30	=30	=30	=30
8ee	do-	1r	.
8dd	-ing	.	.
8cc	al	.	.
8gq	_	.	.
[8a	right	.	.
8a]	_	.	.
4r	.	.	.
8a	there's	.	.
=31	=31	=31	=31
8dd	no-	1r	.
8cc	-thing	.	.
8dd	left	.	.
8cc	to	.	.
8dd	do	.	.
8cc	_	.	.
8cc	to	.	.
8dd#q	_	.	.
[8ee	night	.	.
=32	=32	=32	=32
4ee]	_	1r	.
4r	.	.	.
8r	.	.	.
8a	but	.	.
8cc	go	.	.
16cc	cra	.	.
[16dd	_	.	.
=33	=33	=33	=33
8.dd]	_	1r	.
16cc	_	.	.
8a	zy	.	.
[8a	on	.	.
8a]	_	.	.
8a	you!	.	.
8r	.	.	.
8r	.	.	.
=34	=34	=34	=34
1r	.	1r	.
=35	=35	=35	=35
8ccq	_	.	.
4dd	Cra	1r	.
16cc	_	.	.
8.a	_	.	.
8a	zy	.	.
4a	on	.	.
[8cc	you	.	.
=36	=36	=36	=36
4cc]	_	1r	.
4r	.	.	.
8r	.	.	.
16a	Lem-	.	.
16a	-me	.	.
4cc	go	.	.
=37	=37	=37	=37
8cc	cra	1r	.
4dd	_	.	.
8cc	zy,	.	.
8.dd	cra-	.	.
16cc	-zy	.	.
8a	on	.	.
[8g	you	.	.
=38	=38	=38	=38
2.g]	_	1r	.
8cc	a-	.	.
[8f	-oh	.	.
=39	=39	=39	=39
4.f_	_	1r	.
16f]	_	.	.
[16e	_	.	.
2e_	_	.	.
=40	=40	=40	=40
1e]	_	8d	love
.	.	8e	_
.	.	8d	is
.	.	8c	the
.	.	8dq	_
.	.	8e	ev-
.	.	8d	-'ning
.	.	4c	breeze
=41	=41	=41	=41
1r	.	8e	tou-
.	.	8d	-ching
.	.	8c	your
.	.	8d	skin
.	.	4e	_
.	.	8r	.
.	.	8A	the
=42	=42	=42	=42
.	.	8gq	_
1r	.	8a	gen-
.	.	8a	-tle
.	.	4g	sweet
.	.	8dq	_
.	.	8e	sing-
.	.	8d	-ing
.	.	8c	of
.	.	[8d	leaves
=43	=43	=43	=43
1r	.	8d]	_
.	.	8d	in
.	.	8c	the
.	.	8dq	_
.	.	8e-	wind
.	.	4d	_
.	.	8r	.
.	.	8A	The
=44	=44	=44	=44
1r	.	8e	whis-
.	.	8d	-per
.	.	8c	tha
.	.	8d	calls
.	.	4c	_
.	.	8d	af-
.	.	8c	-ter
=45	=45	=45	=45
.	.	8dq	_
1r	.	8e-	you
.	.	8d	in
.	.	8c	the
.	.	8d	night
.	.	4e	_
.	.	8r	.
.	.	8A	and
=46	=46	=46	=46
1r	.	8a	kis-
.	.	8a	-ses
.	.	8a	your
.	.	8dq	_
.	.	8e-	ear
.	.	8d	_
.	.	8c	in
.	.	8c	the
.	.	[8d	ear
=47	=47	=47	=47
1r	.	8d]	_
.	.	8d	ly
.	.	8c	moon
.	.	8dq	_
.	.	[8e	light
.	.	4.e]	_
.	.	8c	_
=48	=48	=48	=48
1r	.	8d	_
.	.	8c	_
.	.	[4A	_
.	.	4A]	_
*	*	*clefG2	*
.	.	[4a	_
=49	=49	=49	=49
1r	.	1a_	_
=50	=50	=50	=50
1r	.	2a]	_
.	.	2r	.
=51	=51	=51	=51
*clefG2	*	*	*
2r	.	1r	.
4r	.	.	.
8r	.	.	.
8a	And	.	.
=52	=52	=52	=52
8cc	you	1r	.
8cc	don't	.	.
8cc	need	.	.
8cc	to	.	.
8dd	won-	.	.
8dd	-der	.	.
8r	.	.	.
8cc	you're	.	.
=53	=53	=53	=53
8ee	do-	1r	.
4dd	-ing	.	.
[8cc	fine	.	.
8cc]	_	.	.
4r	.	.	.
8c	and	.	.
=54	=54	=54	=54
4dd	my	1r	.
8dd	love,	.	.
6cc	the	.	.
6dd	plea-	.	.
6cc	-sure's	.	.
8dd#q	_	.	.
[8ee	mine,	.	.
=55	=55	=55	=55
2ee]	_	1r	.
8ee	let	.	.
8ee	me	.	.
8gg	go	.	.
16dd#	cra	.	.
[16ee	_	.	.
=56	=56	=56	=56
8.ee]	_	1r	.
16cc	_	.	.
8a	zy	.	.
[8a	on	.	.
8a]	_	.	.
4a	you	.	.
8r	.	.	.
=57	=57	=57	=57
2r	.	1r	.
8r	.	.	.
8ff#q	_	.	.
8.gg	Cra	.	.
8ddq	_	.	.
8.ee	_	.	.
=58	=58	=58	=58
16dd	_	1r	.
16cc	_	.	.
8a	_	.	.
8a	zy	.	.
[8a	on	.	.
4.a]	_	.	.
8cc	you!	.	.
=59	=59	=59	=59
2r	.	1r	.
8r	.	.	.
16a	Lem-	.	.
16a	-me	.	.
4cc	go	.	.
=60	=60	=60	=60
8cc	cra	1r	.
4dd	_	.	.
8cc	zy,	.	.
8.dd	cra-	.	.
16cc	-zy	.	.
8a	on	.	.
[8g	you,	.	.
=61	=61	=61	=61
2.g]	_	1r	.
8cc	a-	.	.
[8f	-oh	.	.
=62	=62	=62	=62
4.f_	_	1r	.
16f]	_	.	.
[16e	_	.	.
2e_	_	.	.
=63	=63	=63	=63
2e]	_	1r	.
2r	.	.	.
=64	=64	=64	=64
*A:	*	*A:	*
*clefF4	*	*	*
8d#q	_	.	.
4.e	Wild	1r	.
[8c#	man's	.	.
8c#]	_	.	.
4c#	world	.	.
8c#	is	.	.
=65	=65	=65	=65
8f#	cry-	1r	.
8e	-ing	.	.
4d	in	.	.
8e	pain	.	.
4f#	_	.	.
8r	.	.	.
=66	=66	=66	=66
*clefG2	*	*	*
8g#	what	1r	.
16e	you	.	.
[16e	gon	.	.
16e]	_	.	.
16c#	na	.	.
[8c#	do	.	.
8c#]	_	.	.
8e	when	.	.
8e	ev-	.	.
8e	-'ry-	.	.
=67	=67	=67	=67
8a	-bo-	1r	.
8g#	-dy's	.	.
4f#	in-	.	.
8.f#	-sane?	.	.
[16a	_	.	.
8a]	_	.	.
8f#	_	.	.
=68	=68	=68	=68
8b	So	1r	.
16g#	a-	.	.
[16g#	-fraid	.	.
8g#]	_	.	.
8e	of	.	.
8e	one,	.	.
8e	who's	.	.
16e	so	.	.
8e	a-	.	.
16b	-fraid	.	.
=69	=69	=69	=69
4.cc#	_	1r	.
8b	of	.	.
8a	you	.	.
8r	.	.	.
8g#	what	.	.
8a	you	.	.
=70	=70	=70	=70
16a	gon	1r	.
4.b	_	.	.
16a	na	.	.
4.g#	do	.	.
16a	_	.	.
16g#	_	.	.
=71	=71	=71	=71
[1d [f#	_	1r	.
=72	=72	=72	=72
2.d] f#]	_	1r	.
[4c# [e	_	.	.
=73	=73	=73	=73
1c#_ e_	_	1r	.
=74	=74	=74	=74
2.c#] e]	_	1r	.
4r	.	.	.
=75	=75	=75	=75
1r	.	1e [b	Ah
=76	=76	=76	=76
1r	.	[2c# f# b_	_
.	.	2c#] g# b_	_
=77	=77	=77	=77
2r	.	1c# [a b_	_
8r	.	.	.
8ddq	_	.	.
[4.ee	Ooh	.	.
=78	=78	=78	=78
2.ee_	_	1d a] b]	_
8ee]	_	.	.
8dd	cra-	.	.
=79	=79	=79	=79
*C:	*	*C:	*
8ee	_	1r	.
16dd	_	.	.
16cc	_	.	.
8a	_	.	.
8a	-zy	.	.
4a	on	.	.
4a	you	.	.
=80	=80	=80	=80
2r	.	1r	.
8r	.	.	.
8ff#q	_	.	.
8.gg	cra	.	.
8ddq	_	.	.
8.ee	_	.	.
=81	=81	=81	=81
16dd	_	1r	.
16cc	_	.	.
8a	_	.	.
8a	zy	.	.
[8a	on	.	.
4.a]	_	.	.
8cc	you!	.	.
=82	=82	=82	=82
2r	.	1r	.
8r	.	.	.
16a	Lem-	.	.
16a	-me	.	.
4cc	go	.	.
=83	=83	=83	=83
8cc	cra	1r	.
4dd	_	.	.
8cc	zy,	.	.
8.dd	cra-	.	.
16cc	-zy	.	.
8a	on	.	.
[8g	you,	.	.
=84	=84	=84	=84
2.g]	_	1r	.
8cc	a-	.	.
[8f	-oh	.	.
=85	=85	=85	=85
4.f_	_	2r	.
16f]	_	.	.
[16e	_	.	.
2e_	_	4r	.
.	.	16r	.
.	.	8d	I
.	.	16e-	_
=86	=86	=86	=86
4e]	_	4e-	_
4r	.	8d	was
.	.	8c	a
2r	.	16e-	wil-
.	.	8d	-low
.	.	[16c	last
.	.	8c]	_
.	.	8d	night
=87	=87	=87	=87
1r	.	8c	_
.	.	16d	in
.	.	[16c	a
.	.	8c]	_
.	.	8dq	_
.	.	[8e	dream
.	.	8e]	_
.	.	4r	.
.	.	8A	I
=88	=88	=88	=88
.	.	8gq	_
1r	.	8a	bent
.	.	[8g	down
.	.	8g]	_
.	.	8d	o
.	.	8e	_
.	.	16d	ver
.	.	[16c	a
.	.	8c]	_
.	.	[8d	clear
=89	=89	=89	=89
1r	.	4d]	_
.	.	16d	run-
.	.	8.c	-ning
.	.	8dq	_
.	.	8e	stream
.	.	8d	_
.	.	4r	.
=90	=90	=90	=90
1r	.	8e	I
.	.	8d	sang
.	.	8c	a
.	.	8d	song
.	.	8c	_
.	.	16d	that
.	.	[16c	I
.	.	16c]	_
.	.	8e-q	_
.	.	[8.d	heard
=91	=91	=91	=91
1r	.	8d]	_
.	.	8d	up
.	.	8c	a-
.	.	8d	-bove
.	.	4e	_
.	.	8.r	.
.	.	16A	And
=92	=92	=92	=92
1r	.	16A	you
*	*	*clefG2	*
.	.	16r	.
.	.	8a	kept
.	.	8a	me
.	.	16a	a-
.	.	16g	-live
.	.	4a	_
.	.	8a	with
.	.	8a	your
=93	=93	=93	=93
1r	.	8r	.
.	.	8cc	sweet
.	.	8r	.
.	.	8dd	flo-
.	.	8cc	-wing
.	.	8ddq	_
.	.	[4.ee	love
=94	=94	=94	=94
*clefG2	*	*	*
1ee	Cra-	2.ee]	Cra
.	.	8g	_
.	.	8g	zy!
=95	=95	=95	=95
4b	-!	1r	.
4r	.	.	.
8r	.	.	.
8a	Yeah!	.	.
4g	_	.	.
=96	=96	=96	=96
8gg	Cra	1r	.
8ee	_	.	.
16dd	_	.	.
16cc	_	.	.
8a	_	.	.
8a	zy	.	.
4a	on	.	.
8a	you	.	.
=97	=97	=97	=97
2r	.	1r	.
8r	.	.	.
16a	Lem-	.	.
16a	-me	.	.
4cc	go	.	.
=98	=98	=98	=98
8cc	cra	1r	.
4dd	_	.	.
8cc	zy,	.	.
8.dd	cra-	.	.
16cc	-zy	.	.
8a	on	.	.
[8g	you	.	.
=99	=99	=99	=99
2.g]	_	1r	.
8cc	a-	.	.
[8f	-oh	.	.
=100	=100	=100	=100
4f_	_	1r	.
8.f]	_	.	.
16e	_	.	.
8r	.	.	.
8ddq	_	.	.
4.ee	cra	.	.
=101	=101	=101	=101
8ddq	_	.	.
6ee	_	1r	.
8ddq	_	.	.
12ee	_	.	.
12dd	_	.	.
12cc	_	.	.
[12a	zy	.	.
8a]	_	.	.
[4.a	on	.	.
=102	=102	=102	=102
8a]	_	1r	.
8a	you!	.	.
4r	.	.	.
8r	.	.	.
8ff#q	_	.	.
8.gg	Cra	.	.
8ddq	_	.	.
8.ee	_	.	.
=103	=103	=103	=103
16dd	_	1r	.
16cc	_	.	.
8a	_	.	.
8a	zy	.	.
[8a	on	.	.
4.a]	_	.	.
8cc	you	.	.
=104	=104	=104	=104
2r	.	1r	.
8r	.	.	.
16a	Lem-	.	.
16a	-me	.	.
4cc	go	.	.
=105	=105	=105	=105
8cc	cra	1r	.
4dd	_	.	.
8cc	zy,	.	.
8.dd	cra-	.	.
16cc	-zy	.	.
8a	on	.	.
[8g	you	.	.
=106	=106	=106	=106
1g]	_	1r	.
=107	=107	=107	=107
2f	oh	1r	.
[2e	yeah	.	.
=108	=108	=108	=108
2e]	_	1r	.
2r	.	.	.
=109	=109	=109	=109
1r	.	1r	.
=110	=110	=110	=110
1r	.	1r	.
=111	=111	=111	=111
1r	.	1r	.
=112	=112	=112	=112
1r	.	1r	.
=113	=113	=113	=113
1r	.	1r	.
=114	=114	=114	=114
1r	.	1r	.
=115	=115	=115	=115
1r	.	1r	.
=116	=116	=116	=116
*A:	*	*A:	*
1r	.	1r	.
=117	=117	=117	=117
1r	.	1r	.
=118	=118	=118	=118
1r	.	1r	.
=119	=119	=119	=119
1r	.	1r	.
=120	=120	=120	=120
1r	.	1r	.
=121	=121	=121	=121
1r	.	1r	.
=122	=122	=122	=122
1r	.	1r	.
=123	=123	=123	=123
1r	.	1r	.
=124	=124	=124	=124
1r	.	1r	.
=125	=125	=125	=125
1r	.	1r	.
=126	=126	=126	=126
1r	.	1r	.
=127	=127	=127	=127
1r	.	1e [b	Ah!
=128	=128	=128	=128
1r	.	2c# f# b_	_
.	.	2c# g# b]	_
=129	=129	=129	=129
1r	.	1c# [a [b	_
=130	=130	=130	=130
1r	.	1d a] b]	_
=131	=131	=131	=131
*C:	*	*C:	*
8ddq	_	.	.
8ee	Cra	1r	.
16dd	_	.	.
16cc	_	.	.
8a	zy	.	.
[8a	on	.	.
4.a]	_	.	.
8a	you	.	.
=132	=132	=132	=132
2r	.	1r	.
4r	.	.	.
8ffq	_	.	.
8gg	Cra	.	.
8ddq	_	.	.
8ee	_	.	.
=133	=133	=133	=133
16dd	_	1r	.
16cc	_	.	.
8a	_	.	.
8a	zy	.	.
[8a	on	.	.
4.a]	_	.	.
8cc	you	.	.
=134	=134	=134	=134
2r	.	1r	.
8r	.	.	.
16a	Lem-	.	.
16a	-me	.	.
4cc	go	.	.
=135	=135	=135	=135
8cc	cra	1r	.
4dd	_	.	.
8cc	zy,	.	.
8.dd	cra-	.	.
16cc	-zy	.	.
8a	on	.	.
[8g	you	.	.
=136	=136	=136	=136
8aq	_	.	.
1g]	_	1r	.
=137	=137	=137	=137
[4.f	-oh	1r	.
16f]	_	.	.
[16e	_	.	.
2e_	_	.	.
=138	=138	=138	=138
1e]	_	1r	.
r;	.	r;	.
r;	.	r;	.
*-	*-	*-	*-
!!!ENC: Nathaniel Condit-Schultz